src/assets/images/ic_message_location.svg

<svg width="10" height="13" viewBox="0 0 10 13" fill="none" xmlns="http://www.w3.org/2000/svg">
<path fill-rule="evenodd" clip-rule="evenodd" d="M5.00244 0C2.26018 0 0 2.26741 0 5.05611V5.14105C0 7.11804 1.01134 9.06361 2.07066 10.4845C2.60538 11.2017 3.16764 11.806 3.65244 12.2361C3.89407 12.4505 4.1247 12.6289 4.32986 12.7571C4.4323 12.8211 4.53662 12.8778 4.63902 12.9199C4.73476 12.9592 4.86258 13 5.00244 13C5.14386 13 5.27288 12.9584 5.36974 12.9182C5.47312 12.8752 5.57815 12.8173 5.68105 12.752C5.88712 12.6213 6.11813 12.4396 6.35968 12.2218C6.84437 11.7847 7.40524 11.1718 7.9381 10.4476C8.99334 9.01332 10 7.05814 10 5.10077V5.01557C9.99998 2.22219 7.73951 0 5.00244 0ZM1 5.05611C1 2.81204 2.8201 1 5.00244 1C7.18979 1 8.99999 2.77703 9 5.01558V5.10077C9 6.74575 8.13674 8.49019 7.13262 9.85496C6.63581 10.5302 6.11965 11.0917 5.69 11.4791C5.47439 11.6736 5.28892 11.8166 5.14543 11.9076C5.08406 11.9465 5.03643 11.972 5.00225 11.9876C4.96817 11.9723 4.92079 11.9472 4.85979 11.9091C4.71675 11.8197 4.53153 11.6792 4.3161 11.488C3.88676 11.1071 3.37003 10.5542 2.87237 9.88674C1.86693 8.53817 1 6.80426 1 5.14105V5.05611ZM4 5C4 4.44772 4.44767 4 5.00015 4C5.55236 4 6 4.44763 6 5C6 5.55232 5.55235 6 5.00015 6C4.44768 6 4 5.55223 4 5ZM5.00015 3C3.89545 3 3 3.89537 3 5C3 6.10456 3.89544 7 5.00015 7C6.10476 7 7 6.10447 7 5C7 3.89546 6.10476 3 5.00015 3Z" fill="#B8BDC7"/>
</svg>

<svg width="10" height="13" fill="none" xmlns="http://www.w3.org/2000/svg"><path fill-rule="evenodd" clip-rule="evenodd" d="M5.002 0C2.26 0 0 2.267 0 5.056v.085c0 1.977 1.011 3.923 2.07 5.344a11.906 11.906 0 001.582 1.751c.242.214.473.393.678.521.102.064.207.12.309.163.096.04.224.08.363.08a.97.97 0 00.368-.082c.103-.043.208-.1.311-.166a5.22 5.22 0 00.679-.53 12.096 12.096 0 001.578-1.774C8.993 9.013 10 7.058 10 5.1v-.085A5.006 5.006 0 005.002 0zM1 5.056C1 2.812 2.82 1 5.002 1A4.006 4.006 0 019 5.016V5.1c0 1.645-.863 3.39-1.867 4.754a11.098 11.098 0 01-1.443 1.624 4.29 4.29 0 01-.545.429 1.236 1.236 0 01-.143.08 1.233 1.233 0 01-.142-.079 4.293 4.293 0 01-.544-.421c-.43-.38-.946-.934-1.444-1.601C1.867 8.538 1 6.804 1 5.14v-.085zM4 5a1 1 0 112 0 1 1 0 01-2 0zm1-2a2 2 0 100 4 2 2 0 000-4z" fill="#B8BDC7"/></svg>
